source/img/sprite/logo.svg

<svg width="100" height="20" viewBox="0 0 100 20" fill="none" xmlns="http://www.w3.org/2000/svg">
<path d="M86.9096 0.280553H89.6877L92.8981 13.5872L96.0978 0.280553H98.5516L94.0764 19.7328H91.7091L86.9096 0.280553ZM85.7854 0.280553H88.4338L88.8445 13.1062V19.7328H85.7854V0.280553ZM97.3409 0.280553H100V19.7328H96.9518V13.1062L97.3409 0.280553Z" fill="white"/>
<path d="M76.0999 0.280553L78.4997 9.04474L80.8778 0.280553H84.3261L80.0887 12.6653V19.7328H76.8998V12.6653L72.6625 0.280553H76.0999Z" fill="white"/>
<path d="M72.2589 9.51235V17.5284C72.0355 17.8223 71.7076 18.1652 71.2752 18.5571C70.85 18.9401 70.2915 19.2785 69.5997 19.5725C68.9151 19.8575 68.0792 20 67.0919 20C66.2199 20 65.4272 19.8308 64.7138 19.4923C64.0075 19.1538 63.3986 18.6417 62.8869 17.9559C62.3825 17.2612 61.9969 16.3972 61.7303 15.364C61.4637 14.322 61.3303 13.0884 61.3303 11.6633V8.35003C61.3303 6.94277 61.4565 5.7181 61.7087 4.67601C61.9681 3.62502 62.3428 2.75217 62.8329 2.05745C63.3229 1.36272 63.9066 0.846136 64.584 0.507682C65.2687 0.169227 66.0397 0 66.8973 0C68.0792 0 69.0484 0.244934 69.8051 0.734802C70.569 1.22467 71.1455 1.95057 71.5346 2.91249C71.931 3.87441 72.1688 5.05455 72.2481 6.4529H69.1889C69.1385 5.63348 69.0268 4.9922 68.8539 4.52905C68.6881 4.06591 68.4539 3.73636 68.1512 3.54041C67.8485 3.33556 67.4558 3.23313 66.973 3.23313C66.555 3.23313 66.1911 3.32665 65.8812 3.51369C65.5713 3.69183 65.3119 3.98575 65.1029 4.39545C64.8939 4.80516 64.739 5.33066 64.6381 5.97194C64.5372 6.61322 64.4868 7.39701 64.4868 8.32331V11.6633C64.4868 12.5807 64.5444 13.3645 64.6597 14.0147C64.775 14.6649 64.9444 15.1948 65.1678 15.6045C65.3984 16.0142 65.6866 16.3126 66.0325 16.4997C66.3857 16.6778 66.8 16.7669 67.2756 16.7669C67.6576 16.7669 67.9639 16.7179 68.1945 16.6199C68.4251 16.5219 68.6088 16.4195 68.7458 16.3126C68.8899 16.1968 69.0088 16.1078 69.1025 16.0454V12.4649H66.8433V9.51235H72.2589Z" fill="white"/>
<path d="M48.5461 0.280553H53.5942C54.6463 0.280553 55.5435 0.503221 56.2858 0.948556C57.028 1.39389 57.5973 2.05299 57.9937 2.92584C58.39 3.7987 58.5882 4.87641 58.5882 6.15897C58.5882 7.20996 58.4729 8.10954 58.2423 8.8577C58.0117 9.59696 57.6838 10.216 57.2586 10.7147C56.8334 11.2046 56.3254 11.5965 55.7345 11.8904L54.7724 12.5985H50.6756L50.6647 9.35202H53.5077C53.9401 9.35202 54.2968 9.23624 54.5778 9.00466C54.8661 8.76418 55.0787 8.43018 55.2156 8.00266C55.3597 7.56623 55.4318 7.05855 55.4318 6.47961C55.4318 5.86505 55.3669 5.33956 55.2372 4.90313C55.1147 4.45779 54.9165 4.11934 54.6427 3.88776C54.3761 3.64728 54.0265 3.52704 53.5942 3.52704H51.7133V19.7328H48.5461V0.280553ZM55.6912 19.7328L52.8051 11.0621L56.1236 11.0487L59.0746 19.5457V19.7328H55.6912Z" fill="white"/>
<path d="M45.9119 16.4996V19.7328H39.0694V16.4996H45.9119ZM40.0531 0.280553V19.7328H36.8859V0.280553H40.0531ZM44.9931 8.16298V11.3026H39.0694V8.16298H44.9931ZM45.8903 0.280553V3.52704H39.0694V0.280553H45.8903Z" fill="white"/>
<path d="M30.4399 12.8791H27.2186V9.63258H30.4399C30.8867 9.63258 31.2506 9.50789 31.5317 9.2585C31.8199 9.00911 32.0289 8.66621 32.1586 8.22978C32.2883 7.78444 32.3532 7.28567 32.3532 6.73345C32.3532 6.17233 32.2847 5.65129 32.1478 5.17033C32.0181 4.68046 31.8127 4.28411 31.5317 3.98129C31.2578 3.67846 30.8939 3.52704 30.4399 3.52704H28.2347V19.7328H25.0783V0.280553H30.4399C31.4992 0.280553 32.4109 0.556661 33.1747 1.10888C33.9386 1.66109 34.5223 2.42261 34.9259 3.39344C35.3367 4.35537 35.542 5.4598 35.542 6.70673C35.542 7.96258 35.3367 9.05365 34.9259 9.97994C34.5223 10.8973 33.9386 11.6099 33.1747 12.1176C32.4109 12.6252 31.4992 12.8791 30.4399 12.8791Z" fill="white"/>
<path d="M19.5006 0.280553H22.657V13.6406C22.657 15.1369 22.4336 16.3571 21.9868 17.3012C21.5472 18.2364 20.9383 18.9223 20.16 19.3587C19.3817 19.7862 18.4917 20 17.49 20C16.4811 20 15.5839 19.7862 14.7984 19.3587C14.0129 18.9223 13.4004 18.2364 12.9608 17.3012C12.5284 16.3571 12.3122 15.1369 12.3122 13.6406V0.280553H15.4686V13.6406C15.4686 14.4867 15.5443 15.1369 15.6956 15.5912C15.8542 16.0454 16.0812 16.3571 16.3766 16.5264C16.6793 16.6867 17.0504 16.7668 17.49 16.7668C17.9368 16.7668 18.3043 16.6867 18.5926 16.5264C18.8881 16.3571 19.1115 16.0454 19.2628 15.5912C19.4213 15.1369 19.5006 14.4867 19.5006 13.6406V0.280553Z" fill="white"/>
<path d="M7.13436 14.6159C7.13436 14.2685 7.10914 13.9524 7.05869 13.6673C7.00825 13.3823 6.90015 13.1196 6.7344 12.8791C6.57586 12.6386 6.34165 12.3981 6.03178 12.1577C5.72911 11.9172 5.33275 11.6678 4.84272 11.4095C4.259 11.1067 3.69329 10.786 3.1456 10.4476C2.59792 10.1002 2.10428 9.69941 1.66468 9.24517C1.22509 8.79093 0.87558 8.25653 0.616149 7.64196C0.363924 7.01849 0.237812 6.28815 0.237812 5.45092C0.237812 4.6315 0.356718 3.88779 0.59453 3.21979C0.839548 2.55179 1.18546 1.98176 1.63225 1.5097C2.07905 1.02874 2.60152 0.659115 3.19965 0.400821C3.80499 0.142526 4.47879 0.0133793 5.22105 0.0133793C6.22995 0.0133793 7.10193 0.271673 7.83699 0.788262C8.57925 1.30485 9.15216 2.01293 9.55572 2.91251C9.96649 3.81208 10.1719 4.84526 10.1719 6.01204H7.01545C7.01545 5.45982 6.9506 4.97441 6.82088 4.55579C6.69837 4.12827 6.5002 3.79427 6.22635 3.55379C5.95251 3.31331 5.59939 3.19307 5.16701 3.19307C4.76345 3.19307 4.42835 3.2955 4.16171 3.50035C3.90228 3.6963 3.70771 3.96795 3.57799 4.31531C3.45548 4.65377 3.39423 5.03676 3.39423 5.46428C3.39423 5.78492 3.45548 6.07438 3.57799 6.33268C3.70771 6.58207 3.88426 6.80919 4.10766 7.01404C4.33106 7.20999 4.5941 7.40148 4.89677 7.58852C5.20664 7.77556 5.54534 7.95815 5.91287 8.13628C6.62631 8.48365 7.25687 8.86663 7.80456 9.28525C8.35225 9.69495 8.80985 10.1581 9.17738 10.6747C9.54491 11.1824 9.82236 11.7569 10.0097 12.3981C10.1971 13.0394 10.2908 13.7698 10.2908 14.5892C10.2908 15.3997 10.1755 16.139 9.94487 16.807C9.72147 17.466 9.39357 18.0361 8.96119 18.517C8.5288 18.9891 8.00634 19.3543 7.39379 19.6126C6.78845 19.8709 6.11105 20 5.36158 20C4.63373 20 3.94552 19.8753 3.29694 19.6259C2.64836 19.3676 2.07545 18.9802 1.57821 18.4636C1.08817 17.9381 0.702626 17.2746 0.421576 16.4729C0.140525 15.6624 0 14.705 0 13.6005H3.16722C3.16722 14.1884 3.21407 14.6916 3.30775 15.1102C3.40143 15.5199 3.54556 15.8495 3.74013 16.0989C3.93471 16.3393 4.17252 16.5219 4.45357 16.6466C4.74183 16.7624 5.06972 16.8203 5.43725 16.8203C5.85522 16.8203 6.18671 16.7223 6.43173 16.5264C6.68396 16.3304 6.86412 16.0677 6.97222 15.7381C7.08031 15.4086 7.13436 15.0345 7.13436 14.6159Z" fill="white"/>
</svg>

<svg viewBox="0 0 100 20" fill="none" xmlns="http://www.w3.org/2000/svg"><path d="M86.91.28h2.78l3.2 13.3 3.2-13.3h2.46l-4.47 19.45h-2.37l-4.8-19.45Zm-1.12 0h2.64l.41 12.83v6.62h-3.05v-19.45Zm11.55 0h2.66v19.45h-3.05v-6.62l.4-12.83Zm-21.24 0 2.4 8.76 2.38-8.76h3.45l-4.24 12.39v7.06h-3.19v-7.06l-4.24-12.39h3.44Zm-3.84 9.23v8.02c-.22.3-.55.64-.98 1.03a5.98 5.98 0 0 1-4.19 1.44 4.93 4.93 0 0 1-4.2-2.04 7.6 7.6 0 0 1-1.16-2.6c-.27-1.04-.4-2.27-.4-3.7v-3.31c0-1.4.13-2.63.38-3.67a7.72 7.72 0 0 1 1.12-2.62 4.73 4.73 0 0 1 4.07-2.06c1.18 0 2.15.24 2.9.73a4.5 4.5 0 0 1 1.73 2.18c.4.96.64 2.14.72 3.54h-3.06a6.91 6.91 0 0 0-.34-1.92c-.16-.46-.4-.8-.7-.99-.3-.2-.7-.3-1.18-.3-.41 0-.78.09-1.09.27-.3.18-.57.48-.78.89-.2.4-.36.93-.46 1.57-.1.64-.15 1.43-.15 2.35v3.34c0 .92.05 1.7.17 2.35.12.65.28 1.18.5 1.6.24.4.53.7.87.89.36.18.77.27 1.25.27a2.3 2.3 0 0 0 1.47-.45l.35-.27v-3.59h-2.26v-2.95h5.42Zm-23.71-9.23h5.04c1.06 0 1.95.22 2.7.67a4.3 4.3 0 0 1 1.7 1.98c.4.87.6 1.95.6 3.23 0 1.05-.12 1.95-.35 2.7a5.22 5.22 0 0 1-.98 1.85c-.43.5-.93.89-1.53 1.18l-.96.7h-4.1v-3.24h2.84c.43 0 .79-.11 1.07-.35.29-.24.5-.57.64-1 .14-.43.21-.94.21-1.52 0-.61-.06-1.14-.2-1.58a1.97 1.97 0 0 0-.59-1.01 1.5 1.5 0 0 0-1.05-.36h-1.88v16.2h-3.16v-19.45Zm7.14 19.45-2.88-8.67 3.31-.01 2.95 8.5v.18h-3.38Zm-9.78-3.23v3.23h-6.84v-3.23h6.84Zm-5.86-16.22v19.45h-3.16v-19.45h3.16Zm4.94 7.88v3.14h-5.92v-3.14h5.92Zm.9-7.88v3.25h-6.82v-3.25h6.82Zm-15.45 12.6h-3.22v-3.25h3.22c.45 0 .81-.12 1.1-.37.28-.25.49-.6.62-1.03a5.69 5.69 0 0 0-.01-3.06 2.75 2.75 0 0 0-.62-1.19 1.4 1.4 0 0 0-1.09-.45h-2.2v16.2h-3.16v-19.45h5.36c1.06 0 1.97.28 2.73.83a5.2 5.2 0 0 1 1.76 2.28c.4.97.61 2.07.61 3.32s-.2 2.34-.61 3.27c-.4.92-1 1.63-1.76 2.14-.76.5-1.67.76-2.73.76Zm-10.94-12.6h3.16v13.36a8.6 8.6 0 0 1-.67 3.66 4.42 4.42 0 0 1-1.83 2.06c-.78.43-1.67.64-2.67.64s-1.9-.21-2.7-.64a4.4 4.4 0 0 1-1.83-2.06 8.84 8.84 0 0 1-.65-3.66v-13.36h3.16v13.36c0 .85.07 1.5.23 1.95.15.46.38.77.68.94.3.16.67.24 1.11.24.45 0 .81-.08 1.1-.24.3-.17.52-.48.67-.94.16-.45.24-1.1.24-1.95v-13.36Zm-12.37 14.34c0-.35-.02-.67-.07-.95a1.98 1.98 0 0 0-.33-.8 3.1 3.1 0 0 0-.7-.71c-.3-.24-.7-.5-1.19-.75-.58-.3-1.15-.62-1.7-.96a8.06 8.06 0 0 1-1.48-1.2 5.17 5.17 0 0 1-1.42-3.8c0-.82.12-1.56.35-2.23a4.91 4.91 0 0 1 2.61-2.82 5.1 5.1 0 0 1 4.64.39 5.03 5.03 0 0 1 1.72 2.12c.4.9.61 1.94.61 3.1h-3.15c0-.55-.07-1.04-.2-1.45a2.04 2.04 0 0 0-.6-1 1.55 1.55 0 0 0-1.05-.37c-.4 0-.74.1-1 .31-.27.2-.46.47-.6.82-.11.33-.18.72-.18 1.14a2 2 0 0 0 .19.87c.13.25.3.48.53.68.22.2.48.4.79.58.3.19.65.37 1.01.55.72.34 1.35.73 1.9 1.15a5.9 5.9 0 0 1 2.2 3.11 7.82 7.82 0 0 1-.07 4.4 4.43 4.43 0 0 1-2.55 2.8 5.7 5.7 0 0 1-4.1.01 4.86 4.86 0 0 1-2.87-3.14 8.78 8.78 0 0 1-.42-2.87h3.17a7 7 0 0 0 .14 1.51c.1.41.24.74.43.99a2 2 0 0 0 .71.55c.3.11.62.17.99.17.42 0 .75-.1 1-.3.24-.19.42-.45.53-.78.11-.33.16-.7.16-1.12Z" fill="#fff"/></svg>
